Sites/Hedoes/app/img/dest/advantages/image(1).svg

<svg width="81" height="81" viewBox="0 0 81 81" fill="none" xmlns="http://www.w3.org/2000/svg">
<g clip-path="url(#clip0)">
<path d="M32.0589 80.5998C28.3291 80.5998 24.5998 79.2142 21.7553 76.4402C20.4097 75.128 19.3416 73.6001 18.5805 71.8987C16.6117 67.4964 13.103 63.9877 8.70074 62.0189C6.99932 61.258 5.47138 60.1899 4.15918 58.8441C-1.40127 53.1415 -1.38417 43.8789 4.19733 38.196C6.46811 35.8839 9.35795 34.4112 12.5542 33.9368C14.3726 33.6669 15.9895 32.856 17.23 31.5919L17.3263 31.4947C20.7856 28.0354 25.7197 26.5211 31.2194 27.231C36.4903 27.9114 41.6862 30.5794 45.8503 34.7434C50.0143 38.9075 52.6824 44.1034 53.3627 49.3743C54.0726 54.8741 52.5585 59.8081 49.099 63.2676L49.0116 63.3544C47.7439 64.6005 46.9323 66.2192 46.6637 68.0365C46.1909 71.235 44.7185 74.1267 42.4061 76.3992C39.5574 79.1988 35.8078 80.5998 32.0589 80.5998ZM28.6513 31.7958C25.5663 31.7958 22.7466 32.79 20.684 34.8526L20.6202 34.917C18.6486 36.9262 16.1008 38.2112 13.2512 38.6341C11.0852 38.9556 9.1259 39.9547 7.58498 41.5235C3.79892 45.3782 3.78721 51.6611 7.55886 55.529C8.45097 56.4439 9.48743 57.169 10.6393 57.6842C16.1092 60.1305 20.4689 64.4902 22.9152 69.9601C23.4304 71.1121 24.1555 72.1486 25.0703 73.0405C28.9393 76.8133 35.2231 76.8006 39.0778 73.0125C40.6471 71.4705 41.6459 69.5098 41.9663 67.3424C42.3873 64.4942 43.672 61.9446 45.6816 59.9694L45.7412 59.9102C48.1363 57.5152 49.1704 53.9895 48.6531 49.9826C48.1062 45.7469 45.9184 41.5274 42.4924 38.1015C38.3689 33.9776 33.22 31.7958 28.6513 31.7958Z" fill="#343634"/>
<path d="M47.8703 24.4603C45.1317 24.4603 42.679 23.4942 40.8579 21.6731C38.7325 19.5478 37.7717 16.5617 38.1523 13.2649C38.5093 10.1734 40.0263 7.15043 42.424 4.75271C44.8216 2.35514 47.8445 0.838119 50.936 0.481025C54.233 0.10082 57.2187 1.06146 59.3442 3.18662C61.4697 5.31209 62.4305 8.29817 62.05 11.595C61.693 14.6865 60.176 17.7094 57.7783 20.107C55.3807 22.5047 52.3576 24.0217 49.2661 24.3787C48.7939 24.4333 48.3281 24.4603 47.8703 24.4603ZM52.3104 5.14953C52.0399 5.14953 51.7631 5.16567 51.4807 5.19828C49.4489 5.43286 47.4249 6.46711 45.7817 8.11028C44.1384 9.75361 43.1042 11.7776 42.8696 13.8094C42.6586 15.636 43.1368 17.2361 44.2157 18.3152C45.2947 19.3942 46.8953 19.8721 48.7214 19.6614C50.7532 19.4268 52.7772 18.3926 54.4205 16.7492C56.0639 15.1059 57.0981 13.0821 57.3325 11.0503C57.5435 9.22367 57.0654 7.62355 55.9863 6.54451C55.0743 5.6323 53.7895 5.14953 52.3104 5.14953Z" fill="#343634"/>
<path d="M15.995 25.6685C13.2562 25.6685 10.8037 24.7023 8.98259 22.8814C6.85712 20.7559 5.89616 17.77 6.27684 14.4732C6.63377 11.3817 8.15079 8.35875 10.5485 5.96103C12.9461 3.56346 15.9692 2.04644 19.0605 1.68935C22.3578 1.30882 25.3434 2.26978 27.4687 4.39494C29.5942 6.52041 30.5552 9.50649 30.1745 12.8033C29.8175 15.8948 28.3005 18.9177 25.9028 21.3153C23.5052 23.713 20.4821 25.23 17.3906 25.587C16.9188 25.6416 16.4528 25.6685 15.995 25.6685ZM20.4351 6.35785C20.1646 6.35785 19.8877 6.374 19.6054 6.4066C17.5736 6.64118 15.5496 7.67543 13.9064 9.3186C12.2629 10.9621 11.2288 12.9861 10.9941 15.0179C10.7833 16.8445 11.2613 18.4446 12.3403 19.5237C13.4192 20.6025 15.019 21.081 16.8461 20.8697C18.8779 20.6351 20.9019 19.6009 22.5452 17.9576C24.1886 16.3142 25.2228 14.2902 25.4572 12.2586C25.6682 10.432 25.19 8.83187 24.1111 7.75283C23.1989 6.84062 21.9141 6.35785 20.4351 6.35785Z" fill="#343634"/>
<path d="M66.7387 43.3289C64 43.3289 61.5473 42.3627 59.7262 40.5418C57.6008 38.4163 56.6398 35.4304 57.0205 32.1336C57.3774 29.0421 58.8944 26.0192 61.2922 23.6215C63.6897 21.2239 66.7129 19.7069 69.8044 19.3499C73.1008 18.9686 76.0871 19.9302 78.2125 22.0555C80.338 24.1808 81.299 27.1669 80.9183 30.4637C80.5614 33.5552 79.0443 36.5782 76.6468 38.9759C74.249 41.3735 71.2259 42.8905 68.1346 43.2476C67.6624 43.3019 67.1964 43.3289 66.7387 43.3289ZM71.1788 24.0183C70.9082 24.0183 70.6314 24.0344 70.349 24.067C68.3173 24.3016 66.2932 25.3359 64.6499 26.9792C63.0066 28.6225 61.9723 30.6464 61.7377 32.6781C61.5269 34.5048 62.0049 36.1049 63.084 37.1839C64.163 38.263 65.7635 38.7415 67.5898 38.53C69.6215 38.2954 71.6456 37.2612 73.2889 35.618C74.9322 33.9747 75.9665 31.9507 76.2009 29.9189C76.4119 28.0923 75.9337 26.4921 74.8548 25.4131C73.9426 24.5009 72.6579 24.0183 71.1788 24.0183Z" fill="#343634"/>
<path d="M65.1425 74.8164C62.4038 74.8164 59.9511 73.8502 58.13 72.0293C56.0046 69.9038 55.0436 66.9179 55.4243 63.6211C55.7812 60.5296 57.2983 57.5066 59.696 55.1089C62.0935 52.7113 65.1167 51.1943 68.2082 50.8374C71.5046 50.4562 74.4909 51.4177 76.6163 53.543C78.7418 55.6683 79.7028 58.6544 79.3221 61.9512C78.9652 65.0427 77.4481 68.0656 75.0506 70.4633C72.6528 72.8609 69.6297 74.3779 66.5384 74.735C66.0662 74.7895 65.6002 74.8164 65.1425 74.8164ZM69.5826 55.5059C69.312 55.5059 69.0352 55.522 68.7528 55.5546C66.7211 55.7892 64.697 56.8235 63.0537 58.4668C61.4104 60.1101 60.3761 62.134 60.1416 64.1657C59.9307 65.9924 60.4087 67.5925 61.4878 68.6715C62.5667 69.7506 64.1674 70.2288 65.9936 70.0176C68.0253 69.783 70.0493 68.7488 71.6927 67.1056C73.336 65.4623 74.3703 63.4383 74.6047 61.4065C74.8157 59.5799 74.3375 57.9797 73.2586 56.9007C72.3464 55.9885 71.0617 55.5059 69.5826 55.5059Z" fill="#343634"/>
</g>
<defs>
<clipPath id="clip0">
<rect width="81" height="81" fill="white" transform="translate(0 -0.00012207)"/>
</clipPath>
</defs>
</svg>

<svg width="81" height="81" fill="none" xmlns="http://www.w3.org/2000/svg"><g clip-path="url(#clip0)" fill="#343634"><path d="M32.059 80.6c-3.73 0-7.46-1.386-10.304-4.16a14.71 14.71 0 01-3.174-4.541 19.554 19.554 0 00-9.88-9.88 14.704 14.704 0 01-4.542-3.175c-5.56-5.703-5.543-14.965.038-20.648a14.639 14.639 0 018.357-4.26c1.819-.27 3.435-1.08 4.676-2.344l.096-.097c3.46-3.46 8.394-4.974 13.893-4.264 5.271.68 10.467 3.348 14.631 7.512s6.832 9.36 7.513 14.631c.71 5.5-.804 10.434-4.264 13.894l-.087.086c-1.268 1.246-2.08 2.865-2.348 4.683a14.64 14.64 0 01-4.258 8.362c-2.849 2.8-6.598 4.2-10.347 4.2zM28.65 31.796c-3.085 0-5.904.994-7.967 3.057l-.064.064c-1.971 2.01-4.52 3.294-7.369 3.717a9.927 9.927 0 00-5.666 2.89c-3.786 3.854-3.798 10.137-.026 14.005a9.978 9.978 0 003.08 2.155A24.297 24.297 0 0122.915 69.96a9.976 9.976 0 002.155 3.08c3.87 3.773 10.153 3.76 14.008-.028a9.926 9.926 0 002.888-5.67c.421-2.848 1.706-5.397 3.716-7.373l.06-.059c2.394-2.395 3.428-5.92 2.911-9.927-.547-4.236-2.735-8.456-6.16-11.881-4.124-4.124-9.273-6.306-13.842-6.306zm19.22-7.336c-2.738 0-5.191-.966-7.012-2.787-2.125-2.125-3.086-5.111-2.706-8.408.357-3.092 1.874-6.115 4.272-8.512C44.822 2.355 47.844.838 50.936.48c3.297-.38 6.283.58 8.408 2.706 2.126 2.125 3.087 5.111 2.706 8.408-.357 3.091-1.874 6.114-4.272 8.512-2.397 2.398-5.42 3.915-8.512 4.272-.472.054-.938.081-1.396.081zm4.44-19.31c-.27 0-.547.016-.83.048-2.031.235-4.055 1.27-5.698 2.912-1.644 1.644-2.678 3.668-2.912 5.7-.211 1.826.267 3.426 1.346 4.505 1.079 1.08 2.68 1.557 4.505 1.346 2.032-.234 4.056-1.268 5.7-2.912 1.643-1.643 2.677-3.667 2.912-5.699.21-1.826-.268-3.426-1.347-4.505-.912-.913-2.197-1.395-3.676-1.395zM15.995 25.669c-2.739 0-5.191-.967-7.012-2.788-2.126-2.125-3.087-5.111-2.706-8.408.357-3.091 1.874-6.114 4.272-8.512 2.397-2.398 5.42-3.915 8.512-4.272 3.297-.38 6.282.58 8.408 2.706 2.125 2.125 3.086 5.111 2.705 8.408-.357 3.092-1.873 6.115-4.271 8.512-2.398 2.398-5.42 3.915-8.512 4.272-.472.055-.938.082-1.396.082zm4.44-19.311c-.27 0-.547.016-.83.049-2.031.234-4.055 1.268-5.699 2.912-1.643 1.643-2.677 3.667-2.912 5.699-.21 1.826.267 3.427 1.346 4.506 1.08 1.078 2.679 1.557 4.506 1.346 2.032-.235 4.056-1.27 5.7-2.912 1.643-1.644 2.677-3.668 2.911-5.7.211-1.826-.267-3.426-1.346-4.505-.912-.912-2.197-1.395-3.676-1.395zm46.304 36.971c-2.739 0-5.192-.966-7.013-2.787-2.125-2.126-3.086-5.112-2.706-8.408.357-3.092 1.874-6.115 4.272-8.512 2.398-2.398 5.42-3.915 8.512-4.272 3.297-.381 6.283.58 8.409 2.705 2.125 2.126 3.086 5.112 2.705 8.409-.357 3.091-1.874 6.114-4.271 8.512-2.398 2.398-5.421 3.915-8.512 4.272-.473.054-.939.08-1.396.08zm4.44-19.31c-.27 0-.548.015-.83.048-2.032.235-4.056 1.269-5.7 2.912-1.642 1.643-2.677 3.667-2.911 5.7-.211 1.826.267 3.426 1.346 4.505 1.079 1.079 2.68 1.558 4.506 1.346 2.031-.235 4.056-1.269 5.699-2.912 1.643-1.643 2.677-3.667 2.912-5.7.21-1.826-.267-3.426-1.346-4.505-.912-.912-2.197-1.395-3.676-1.395zm-6.037 50.797c-2.738 0-5.19-.966-7.012-2.787-2.125-2.125-3.086-5.111-2.706-8.408.357-3.091 1.874-6.114 4.272-8.512 2.398-2.398 5.42-3.915 8.512-4.272 3.297-.38 6.283.58 8.408 2.706 2.126 2.125 3.087 5.111 2.706 8.408-.357 3.092-1.874 6.115-4.271 8.512-2.398 2.398-5.421 3.915-8.513 4.272-.472.055-.938.081-1.395.081zm4.44-19.31c-.27 0-.547.016-.83.049-2.03.234-4.055 1.269-5.698 2.912-1.644 1.643-2.678 3.667-2.912 5.699-.211 1.826.267 3.427 1.346 4.505 1.079 1.08 2.68 1.558 4.506 1.347 2.031-.235 4.055-1.27 5.699-2.912 1.643-1.644 2.677-3.668 2.912-5.7.21-1.826-.267-3.426-1.346-4.505-.913-.913-2.197-1.395-3.676-1.395z"/></g><defs><clipPath id="clip0"><path fill="#fff" d="M0 0h81v81H0z"/></clipPath></defs></svg>
